src/actions/22/insert-image.svg

<svg version="1.1" viewBox="0 0 22 22" xmlns="http://www.w3.org/2000/svg">
 <defs>
  <style id="current-color-scheme" type="text/css">.ColorScheme-Text {
        color:#363636;
      }</style>
 </defs>
 <path class="ColorScheme-Text" d="m5 4c-1.108 0-2 0.892-2 2v9c0 1.108 0.892 2 2 2h7.6855a4.5 4.5 0 0 1-1.6855-3.5 4.5 4.5 0 0 1 0.27344-1.5156l-1.752 2.0156-2.5215-2-3 3v-9c0-0.554 0.446-1 1-1h12c0.554 0 1 0.446 1 1v3.7578a4.5 4.5 0 0 1 1 0.91406v-4.6719c0-1.108-0.892-2-2-2h-12zm2.5 3c-0.82843 0-1.5 0.67157-1.5 1.5s0.67157 1.5 1.5 1.5 1.5-0.67157 1.5-1.5-0.67157-1.5-1.5-1.5z" fill="currentColor"/>
 <path class="ColorScheme-Text" d="m15.5 10a3.5 3.5 0 0 0-3.5 3.5 3.5 3.5 0 0 0 3.5 3.5 3.5 3.5 0 0 0 3.5-3.5 3.5 3.5 0 0 0-3.5-3.5zm0 1c0.277 0 0.5 0.223 0.5 0.5v1.5h1.5c0.277 0 0.5 0.223 0.5 0.5s-0.223 0.5-0.5 0.5h-1.5v1.5c0 0.277-0.223 0.5-0.5 0.5s-0.5-0.223-0.5-0.5v-1.5h-1.5c-0.277 0-0.5-0.223-0.5-0.5s0.223-0.5 0.5-0.5h1.5v-1.5c0-0.277 0.223-0.5 0.5-0.5z" fill="currentColor"/>
</svg>

<svg xmlns="http://www.w3.org/2000/svg" viewBox="0 0 22 22">
    <defs>
        <style id="current-color-scheme" type="text/css">
            .ColorScheme-Text{color:#050505;opacity:.7}
        </style>
    </defs>
    <path fill="currentColor" d="M5 4c-1.108 0-2 .892-2 2v9c0 1.108.892 2 2 2h7.686A4.5 4.5 0 0 1 11 13.5a4.5 4.5 0 0 1 .273-1.516L9.521 14 7 12l-3 3V6c0-.554.446-1 1-1h12c.554 0 1 .446 1 1v3.758a4.5 4.5 0 0 1 1 .914V6c0-1.108-.892-2-2-2H5zm2.5 3a1.5 1.5 0 1 0 0 3 1.5 1.5 0 0 0 0-3z" class="ColorScheme-Text"/>
    <path fill="currentColor" d="M15.5 10a3.5 3.5 0 0 0-3.5 3.5 3.5 3.5 0 0 0 3.5 3.5 3.5 3.5 0 0 0 3.5-3.5 3.5 3.5 0 0 0-3.5-3.5zm0 1c.277 0 .5.223.5.5V13h1.5a.499.499 0 1 1 0 1H16v1.5a.499.499 0 1 1-1 0V14h-1.5a.499.499 0 1 1 0-1H15v-1.5c0-.277.223-.5.5-.5z" class="ColorScheme-Text"/>
</svg>
